X:1

T: Bass River

C: © B. Black

Q: 325

R: hornpipe

M: 4/4

L: 1/8

K: D

A | dcdA (3Bcd AF | GFGB AFDB, | A,DFA dcdA | (3Bcd AF E3 A |

dfec dAFA | GBAF EDB,E | DF (3FFF EAce | dBAF D3 :|

A | fdfa gB (3BAB | cBce dF F2 | GBAc Bdce | dfaf e3 g |

fdfa gB (3BAB | cBce dF F2 | GB (3BBB Acec | dBAF D3 :|

           

BASSE'S CAREER. AKA and see "Mr. Basse, His Career," "The Hunter in His Career."

           

BASTRINGUE, LA. Canadian (originally), American; Air and Reel. Canada; Quebec, Prince Edward Island. USA, New England. D Major ('A' part) & D Mixolydian ('B' part). Standard tuning. AABB (Miller & Perron, Perlman, Sweet): AABB' (Brody). “La Bastringue” has its origins in an old French tune from the 17th or 18th century. It appears set in 6/8 time in a number of English collections in the 19th century, such as Wilson’s Companion to the Ballroom, under the title “Voulez-vous danser, Mademoiselle.” In French Canada it became a "party song" which tells of an older man who wants to dance "La Bastringue" with a girl. He soon finds he isn't up to the pace, however, and to save face tries to beg off by feigning concern for the woman's stamina. She proves equal to the task, though, and he finally just has to give up. The first verse goes:

***

Mademoiselle, voulez‑vous danser La Bastringue,

Mademoiselle, voulez‑vous danser,

La Bastringue est commencee.

***

The song has become as close to being an unofficial French-Canadian national folk anthem as any, though it is perhaps better known now as a dance tune, especially in New England. Transplanted French-Canadian fiddler Omer Marcoux {1898-1982} (Concord, N.H.) recalled it as one of the first dance tunes he learned, and related that his father played it for the first tune of the evening, to get everyone moving in the house. A third part is infrequently played after the familiar first two parts—Vermont fiddler Louis Beaudoin played the first strain of “Moneymusk” as his third part, points out Paul Tyler. There is a similarly titled, but unrelated reel called “La Bistringue.” Sources for notated versions: Jean Carignan (Montreal, Canada) [Brody]; Omer Marcoux (Concord, N.H.) [Miskoe & Paul]; Louise Arsenault (b. 1956, Mont Carmel, East Prince County, Prince Edward Island; now resident of Wellington) [Perlman]. Brody (Fiddler’s Fakebook), 1983; pg. 36. Miller & Perron (New England Fiddlers Repertoire), 1983; No. 141. Miskoe & Paul (Omer Marcoux), 1994; pg. 37. Perlman (The Fiddle Music of Prince Edward Island), 1996; pg. 152. Sweet (Fifer’s Delight), 1964/1981; pg. 59. Welling (Welling’s Hartford Tunebook), pg. 12. Folkways FG 3532, "Alan Mills and Jean Carignan." Green Linnet SIF-1051, Jackie Daly, Seamus & Manus McGuire - "Buttons and Bows" (1984). Legacy 120l, Jean Carignan‑ "French Canadian Fiddle Songs." Philo 2002, "Beaudoin Family." Smithsonian Folkways Recordings SFW 40116, Les Franco-Américains - “Mademoiselle, voulez-vous danser?” (1999. Various artists). Varrick VR‑038, Yankee Ingenuity ‑ "Heatin' Up the Hall" (1989). Voyager 320‑S, Frank Ferrel‑ "Fiddle Tunes." Jackie Daly (et al) – “The Big Squeeze.”

